X: 30432
T: Old Torn Petticoat, The
R: reel
M: 4/4
K: Adorian
c2BA GEDE|G2BG dGBd|c2BA GE3|AcBG A3B:|
cdef g3e|gage dBG2|cdef g2ed|eaab aged|
cdef g3e|gage dBG2|c2BA GE3|AcBG A3B:|

